svg/报告助手2.svg

<svg width="114" height="114" viewBox="0 0 114 114" fill="none" xmlns="http://www.w3.org/2000/svg"><rect width="114" height="114" fill="#DADADA"/><path d="M-6390.05 -728.603C-6390.05 -767.815 -6358.27 -799.604 -6319.05 -799.604H846.944C886.157 -799.604 917.945 -767.815 917.945 -728.602V7548.4C917.945 7587.61 886.157 7619.4 846.944 7619.4H-6319.05C-6358.27 7619.4 -6390.05 7587.61 -6390.05 7548.4V-728.603Z" fill="url(#paint0_linear_2483_15959)"/><path d="M-6319.05 -798.124H846.944C885.34 -798.124 916.466 -766.998 916.466 -728.603V7548.4C916.466 7586.79 885.34 7617.92 846.944 7617.92H-6319.05C-6357.45 7617.92 -6388.58 7586.79 -6388.58 7548.4V-728.603C-6388.58 -766.998 -6357.45 -798.124 -6319.05 -798.124Z" stroke="white" stroke-opacity="0.12" stroke-width="2.95838"/><g filter="url(#filter0_d_2483_15959)"><rect x="1.82812" y="1.39648" width="110" height="110" rx="22.3438" fill="#DBEFFD"/><rect x="1.77441" y="1.34277" width="110.107" height="110.107" rx="22.3975" stroke="#DDE5F2" stroke-width="0.107422"/><g filter="url(#filter1_ddd_2483_15959)"><path d="M56.9268 30.1669C56.8607 30.5661 56.8242 30.9765 56.8242 31.3944V32.7587C56.8243 36.8833 60.1683 40.2264 64.293 40.2264H69.7295L69.7275 40.2284C70.7363 40.2121 71.7434 40.638 72.4395 41.4794C73.0054 42.1638 73.2666 43.0028 73.2383 43.829C73.2481 43.935 73.2549 44.0427 73.2549 44.1512V49.0477C73.2549 49.1584 73.2485 49.2679 73.2383 49.3759C73.4154 53.3432 76.6863 56.5055 80.6973 56.5057H82.918C83.1942 56.5057 83.4679 56.4881 83.7363 56.4589C83.7382 56.5074 83.7412 56.5564 83.7412 56.6053V84.9071C83.7412 86.9689 82.0685 88.6407 80.0068 88.6415H33.624C31.5619 88.6412 29.8906 86.9693 29.8906 84.9071V33.9012C29.8909 31.8393 31.562 30.1671 33.624 30.1669H56.9268ZM41.1572 75.3114C39.2322 75.3114 37.6709 76.8727 37.6709 78.7977C37.6712 80.7225 39.2324 82.2831 41.1572 82.2831H44.4951C46.42 82.2831 47.9812 80.7225 47.9814 78.7977C47.9814 76.8727 46.4201 75.3114 44.4951 75.3114H41.1572ZM55.9023 75.3114C53.9773 75.3114 52.417 76.8727 52.417 78.7977C52.4172 80.7225 53.9775 82.2831 55.9023 82.2831H72.499C74.4238 82.2829 75.9841 80.7224 75.9844 78.7977C75.9844 76.8728 74.4239 75.3116 72.499 75.3114H55.9023ZM41.1572 61.6844C39.2323 61.6844 37.6711 63.2449 37.6709 65.1698C37.6709 67.0948 39.2322 68.6561 41.1572 68.6561H57.7529C59.678 68.6561 61.2393 67.0948 61.2393 65.1698C61.2391 63.2449 59.6778 61.6844 57.7529 61.6844H41.1572ZM69.1729 61.6844C67.2479 61.6844 65.6867 63.2449 65.6865 65.1698C65.6865 67.0948 67.2478 68.6561 69.1729 68.6561H72.5107C74.4358 68.6561 75.9971 67.0948 75.9971 65.1698C75.9969 63.2449 74.4357 61.6844 72.5107 61.6844H69.1729ZM41.1572 48.0614C39.2322 48.0614 37.671 49.6218 37.6709 51.5468C37.6709 53.4718 39.2322 55.0321 41.1572 55.0321H57.7529C59.678 55.0321 61.2393 53.4718 61.2393 51.5468C61.2392 49.6218 59.6779 48.0614 57.7529 48.0614H41.1572Z" fill="white"/><path d="M81.5891 17.1173C80.3415 17.1557 80.2281 17.8218 79.9077 18.6717C79.5873 19.5216 79.5253 23.3626 77.6042 25.7919C75.6831 28.2212 70.8824 28.3193 70.2121 28.4629C69.5417 28.6064 68.807 29.1219 68.7965 30.2731C68.7859 31.4243 69.7491 31.837 70.237 31.9598C70.725 32.0826 75.9199 32.635 77.6647 34.2803C79.4095 35.9256 79.8053 41.1658 80.072 41.7105C80.3387 42.2552 80.6958 43.0365 81.774 43.0134C82.8521 42.9902 83.2319 42.1728 83.4761 41.6862C83.7204 41.1996 84.3981 36.5932 86.2231 34.2193C88.0481 31.8453 91.7781 32.0317 92.8805 31.7035C93.9829 31.3754 94.6675 30.9961 94.655 29.7771C94.6425 28.5582 92.8557 28.2366 92.8557 28.2366C92.8557 28.2366 87.9509 27.548 86.1626 25.7308C84.3743 23.9137 83.3118 18.6474 83.3118 18.6474C83.3118 18.6474 82.8367 17.0788 81.5891 17.1173Z" fill="#0F172A" stroke="black" stroke-width="0.175413"/></g></g><defs><filter id="filter0_d_2483_15959" x="-1.19209e-07" y="-8.9407e-08" width="113.656" height="113.652" filterUnits="userSpaceOnUse" color-interpolation-filters="sRGB"><feFlood flood-opacity="0" result="BackgroundImageFix"/><feColorMatrix in="SourceAlpha" type="matrix" values="0 0 0 0 0 0 0 0 0 0 0 0 0 0 0 0 0 0 127 0" result="hardAlpha"/><feOffset dy="0.429688"/><feGaussianBlur stdDeviation="0.859375"/><feColorMatrix type="matrix" values="0 0 0 0 0 0 0 0 0 0 0 0 0 0 0 0 0 0 0.15 0"/><feBlend mode="normal" in2="BackgroundImageFix" result="effect1_dropShadow_2483_15959"/><feBlend mode="normal" in="SourceGraphic" in2="effect1_dropShadow_2483_15959" result="shape"/></filter><filter id="filter1_ddd_2483_15959" x="21.2969" y="21.5731" width="79.6328" height="84.2559" filterUnits="userSpaceOnUse" color-interpolation-filters="sRGB"><feFlood flood-opacity="0" result="BackgroundImageFix"/><feColorMatrix in="SourceAlpha" type="matrix" values="0 0 0 0 0 0 0 0 0 0 0 0 0 0 0 0 0 0 127 0" result="hardAlpha"/><feOffset dx="2.14844" dy="2.14844"/><feGaussianBlur stdDeviation="3.22266"/><feComposite in2="hardAlpha" operator="out"/><feColorMatrix type="matrix" values="0 0 0 0 0.541176 0 0 0 0 0.654902 0 0 0 0 0.721569 0 0 0 0.2 0"/><feBlend mode="normal" in2="BackgroundImageFix" result="effect1_dropShadow_2483_15959"/><feColorMatrix in="SourceAlpha" type="matrix" values="0 0 0 0 0 0 0 0 0 0 0 0 0 0 0 0 0 0 127 0" result="hardAlpha"/><feOffset dx="4.29688" dy="4.29688"/><feGaussianBlur stdDeviation="6.44531"/><feComposite in2="hardAlpha" operator="out"/><feColorMatrix type="matrix" values="0 0 0 0 0.541176 0 0 0 0 0.654902 0 0 0 0 0.733333 0 0 0 0.3 0"/><feBlend mode="normal" in2="effect1_dropShadow_2483_15959" result="effect2_dropShadow_2483_15959"/><feColorMatrix in="SourceAlpha" type="matrix" values="0 0 0 0 0 0 0 0 0 0 0 0 0 0 0 0 0 0 127 0" result="hardAlpha"/><feOffset dx="-1.07422" dy="-1.07422"/><feGaussianBlur stdDeviation="1.07422"/><feComposite in2="hardAlpha" operator="out"/><feColorMatrix type="matrix" values="0 0 0 0 1 0 0 0 0 1 0 0 0 0 1 0 0 0 0.3 0"/><feBlend mode="normal" in2="effect2_dropShadow_2483_15959" result="effect3_dropShadow_2483_15959"/><feBlend mode="normal" in="SourceGraphic" in2="effect3_dropShadow_2483_15959" result="shape"/></filter><linearGradient id="paint0_linear_2483_15959" x1="-2736.05" y1="-799.604" x2="-2736.05" y2="7619.4" gradientUnits="userSpaceOnUse"><stop stop-color="#383839"/><stop offset="1" stop-color="#2C2C2C"/></linearGradient><clipPath id="clip0_2483_15959"></clipPath></defs></svg>

<svg fill="none" viewBox="0 0 114 114"><path fill="#DADADA" d="M0 0h114v114H0z"/><path fill="url(#a)" d="M-6390.05-728.603c0-39.212 31.78-71.001 71-71.001H846.944c39.213 0 71.001 31.789 71.001 71.002V7548.4c0 39.21-31.788 71-71.001 71H-6319.05c-39.22 0-71-31.79-71-71z"/><path stroke="white" stroke-opacity=".12" stroke-width="2.958" d="M-6319.05-798.124H846.944c38.396 0 69.522 31.126 69.522 69.521V7548.4c0 38.39-31.126 69.52-69.522 69.52H-6319.05c-38.4 0-69.53-31.13-69.53-69.52V-728.603c0-38.395 31.13-69.521 69.53-69.521Z"/><g filter="url(#b)"><rect width="110" height="110" x="1.828" y="1.396" fill="#DBEFFD" rx="22.344"/><rect width="110.107" height="110.107" x="1.774" y="1.343" stroke="#DDE5F2" stroke-width=".107" rx="22.398"/><g filter="url(#c)"><path fill="white" d="M56.927 30.167c-.066.4-.103.81-.103 1.227v1.365a7.47 7.47 0 0 0 7.469 7.467h5.436l-.001.002a3.44 3.44 0 0 1 2.712 1.251c.565.685.827 1.524.798 2.35a4 4 0 0 1 .017.322v4.897q0 .166-.017.328a7.467 7.467 0 0 0 7.46 7.13h2.22q.415-.002.818-.047.004.072.005.146v28.302a3.736 3.736 0 0 1-3.734 3.734H33.624a3.734 3.734 0 0 1-3.733-3.734V33.901a3.734 3.734 0 0 1 3.733-3.734zM41.157 75.31a3.487 3.487 0 0 0 0 6.972h3.338a3.486 3.486 0 0 0 0-6.972zm14.745 0a3.486 3.486 0 0 0 0 6.972H72.5a3.486 3.486 0 0 0 0-6.972zM41.157 61.684a3.486 3.486 0 0 0 0 6.972h16.596a3.487 3.487 0 0 0 0-6.972zm28.016 0a3.486 3.486 0 1 0 0 6.972h3.338a3.487 3.487 0 0 0 0-6.972zM41.157 48.061a3.486 3.486 0 1 0 0 6.971h16.596a3.486 3.486 0 1 0 0-6.97z"/><path fill="#0F172A" stroke="black" stroke-width=".175" d="M81.59 17.117c-1.249.039-1.362.705-1.682 1.555s-.383 4.69-2.304 7.12-6.722 2.527-7.392 2.67c-.67.144-1.405.66-1.416 1.811s.953 1.564 1.441 1.687 5.683.675 7.428 2.32c1.744 1.646 2.14 6.886 2.407 7.43.267.545.624 1.326 1.702 1.303s1.458-.84 1.702-1.327c.244-.486.922-5.093 2.747-7.467s5.555-2.187 6.657-2.516c1.103-.328 1.788-.707 1.775-1.926s-1.8-1.54-1.8-1.54-4.904-.689-6.692-2.506-2.851-7.084-2.851-7.084-.475-1.568-1.723-1.53Z"/></g></g><defs><filter id="b" width="113.656" height="113.652" x="0" y="0" color-interpolation-filters="sRGB" filterUnits="userSpaceOnUse"><feFlood flood-opacity="0" result="BackgroundImageFix"/><feColorMatrix in="SourceAlpha" result="hardAlpha" type="matrix" values="0 0 0 0 0 0 0 0 0 0 0 0 0 0 0 0 0 0 127 0"/><feOffset dy=".43"/><feGaussianBlur stdDeviation=".859"/><feColorMatrix type="matrix" values="0 0 0 0 0 0 0 0 0 0 0 0 0 0 0 0 0 0 0.15 0"/><feBlend in2="BackgroundImageFix" mode="normal" result="effect1_dropShadow_2483_15959"/><feBlend in="SourceGraphic" in2="effect1_dropShadow_2483_15959" mode="normal" result="shape"/></filter><filter id="c" width="79.633" height="84.256" x="21.297" y="21.573" color-interpolation-filters="sRGB" filterUnits="userSpaceOnUse"><feFlood flood-opacity="0" result="BackgroundImageFix"/><feColorMatrix in="SourceAlpha" result="hardAlpha" type="matrix" values="0 0 0 0 0 0 0 0 0 0 0 0 0 0 0 0 0 0 127 0"/><feOffset dx="2.148" dy="2.148"/><feGaussianBlur stdDeviation="3.223"/><feComposite in2="hardAlpha" operator="out"/><feColorMatrix type="matrix" values="0 0 0 0 0.541176 0 0 0 0 0.654902 0 0 0 0 0.721569 0 0 0 0.2 0"/><feBlend in2="BackgroundImageFix" mode="normal" result="effect1_dropShadow_2483_15959"/><feColorMatrix in="SourceAlpha" result="hardAlpha" type="matrix" values="0 0 0 0 0 0 0 0 0 0 0 0 0 0 0 0 0 0 127 0"/><feOffset dx="4.297" dy="4.297"/><feGaussianBlur stdDeviation="6.445"/><feComposite in2="hardAlpha" operator="out"/><feColorMatrix type="matrix" values="0 0 0 0 0.541176 0 0 0 0 0.654902 0 0 0 0 0.733333 0 0 0 0.3 0"/><feBlend in2="effect1_dropShadow_2483_15959" mode="normal" result="effect2_dropShadow_2483_15959"/><feColorMatrix in="SourceAlpha" result="hardAlpha" type="matrix" values="0 0 0 0 0 0 0 0 0 0 0 0 0 0 0 0 0 0 127 0"/><feOffset dx="-1.074" dy="-1.074"/><feGaussianBlur stdDeviation="1.074"/><feComposite in2="hardAlpha" operator="out"/><feColorMatrix type="matrix" values="0 0 0 0 1 0 0 0 0 1 0 0 0 0 1 0 0 0 0.3 0"/><feBlend in2="effect2_dropShadow_2483_15959" mode="normal" result="effect3_dropShadow_2483_15959"/><feBlend in="SourceGraphic" in2="effect3_dropShadow_2483_15959" mode="normal" result="shape"/></filter><linearGradient id="a" x1="-2736.05" x2="-2736.05" y1="-799.604" y2="7619.4" gradientUnits="userSpaceOnUse"><stop stop-color="#383839"/><stop offset="1" stop-color="#2C2C2C"/></linearGradient></defs></svg>
